X: 3
T: The Gold Ring
R: jig
M: 6/8
L: 1/8
K: Dmaj
FE|:DBA DFA|d3 ecA|B3 AFD|E3 FDB|
A3 DFA|d(3fed ecA|B/c/dB AFE|1 FDD DFE:|2 FDD DdB||
|:AFA dfa|bgb afd|gbg faf|ede fdB|
A3 d(3fga|bgb afd|B/c/dB AFA|1 Bdc dcB:|2 Bdc dfe||
|:dFF AFE|DFE DFA|d3 ede|fdB B2c|
dFF AFE|DFE DFA|dfd e3|1 fdc dfe:|2 fdc dcB||
|:AFA d3|BAB dAF|DEF E3|FAB BdB|
AFA d2c|B3 dAF|DEF EDE|1 FDD DdB:|2 FDD D3||


Tune 1351	Setting 14699

